X:134010
T:Green Hills of Tyrol (Scottish Soldier)
C: Pipe Major J MacLeod (93rd Highlanders)(1854)
B: Canadian Cadet Program / Scot's Guards (I.226)
O:Arranged by Kevin Fraser
Z:Kevin Fraser
H:In 1961, the famous Scottish singer Andy Stewart put words to the tune and his song.  (1908) - This is not a Highland tune properly speaking, but it suits the pipes extremely well, and is favourite with many pipers who play it without knowing exactly what it is. It is believed to be an old Tyrolese air, introduced by Rossini into his opera, William Tell. During the Crimean campaign, Pipe Major John MacLeod of the 93rd Highlanders heard a band of the Sardinian contingent playing selections from the opera in the camp before Sebastopol. He was struck by the air, and put it on the pipes. It has been played in the 93rd ever since, generally in parts.
Q:1/4=78
M:3/4
L:1/8
R:March
K:HP
I:MIDI=program 110
U: R = ///
U: r = //
U: V = !accent!
V:M gstem=up stem=down name="Melody" sname="Melody"
V:H gstem=up stem=down name="Harmony" sname="Harmony"
V:C gstem=up stem=down name="C-Harmony"
V:S gstem=up stem=down dyn=up stafflines=1 clef=perc middle=G name="Snare" sname="Snare"" sname="Snare"
V:B gstem=up stem=down clef=none dyn=up name="Bass"
V:T gstem=up stem=down clef=none dyn=up name="Tenor"
V:BB gstem=up stem=down name="Brass Bass" sname="ABCD-C" transpose=-1  octave=-1 clef=bass
V:BC gstem=up stem=down name="Brass Chord" sname="ABCD-D" transpose=-1
V:BD gstem=up stem=down name="Brass Chord 2" sname="ABCD-B" transpose=-1
V:P gstem=up stem=down name="Piano" octave=-1
T: Green Hills of Tyrol
V:M gstem=up stem=down name="Melody"
%%MIDI program 109 #bagpipes
%%MIDI vol 100
%%landscape
%%scale 0.6
[V:M] |: {g}A>B {GdG}c2 {gcd}c{e}A | {gcd}cd {gef}e2 {A}ef | {gcd}cf {gef}e>c {g}B2 | {GdG}Bf {gef}e>c {G}A2 | $
w:         hen o dro hoto un       | hoto a hete ende ve   | hoto ve hete o ho    | dro ve hete o den
[V:M]   | {g}A>B {GdG}c2 {gcd}c{e}A | {gcd}cd {gef}e2 {A}ef | {gcd}cf {gef}e>c {g}B2 | {GdG}B{G}A {gcd}c>B {G}A2 :| $
w:         hen o dro hoto un       | hoto a hete ende ve   | hoto ve hete o ho    | dro den hoto o den
[V:M]|: {gcd}ce {ag}a2 {g}a2 | {f}gf {gfg}fe {A}e2 | {g}e>f {gef}ed {gdG}d2 | {g}d>e {gde}dc {GdG}c2 | $
w:       hoto e dili   li    |  vedi ve chete e ende | he ve hete a hada    | ha e hata o dro
[V:M]   |{gcd}ce {ag}a2 {g}a2 | {f}gf {gfg}fe {A}e2 | {g}e>f {gef}e2 {A}e>d | {gcd}cd {gef}e2 {A}e2 :| $
w:       hoto e dili   li    |  vedi ve chete e ende | he ve hete ende a    | hoto a hete ende
[V:H] |: {g}A>B {GdG}c2 {gcd}c{e}A | {gcd}cd {gcd}c2 {g}cd | {gcd}cd {gcd}c>A {g}G2 | {gGd}Gd {gcd}c>A {GAG}A2 | $
[V:H]    |{g}A>B {GdG}c2 {gcd}c{e}A | {gcd}cd {gcd}c2 {g}cd | {gcd}cd {gcd}c>A {g}G2 | {gGd}GA {gcd}c>G {G}A2  :| $
[V:H]|: {g}A{d}c {g}f2 {g}f2 | {gef}ed {gcd}dc {GdG}c2 | {g}c>d {gcd}c{e}B {GdG}B2 | {g}B>c {gBd}B{e}A {GAG}A2 | $
[V:H]   |{g}A{d}c {g}f2 {g}f2 | {gef}ed {gcd}dc {GdG}c2 | {g}c>d {gcd}c2 {GdG}c>B   | {g}AB {gcd}c2 {GdG}c2 :| $
W: Kilberry Book of Ceol Meadhonach (Glasgow, 1908): This is not a Highland tune properly speaking, 
W: but it suits the pipes extremely well, and is favourite with many pipers who play it without knowing 
W: exactly what it is. It is believed to be an old Tyrolese air, introduced by Rossini into his opera, William Tell. 
W: During the Crimean campaign, Pipe Major John MacLeod of the 93rd Highlanders heard a band of the Sardinian 
W: contingent playing selections from the opera in the camp before Sebastopol. He was struck by the air, 
W: and put it on the pipes. It has been played in the 93rd ever since, generally in parts.
W: 
w: 
W: Lyrics:
W: There was a soldier, a Scottish soldier | Who wandered far away and soldiered far away | There was none bolder, with good broad shoulder |He's fought in many a fray, and fought and won.
W: He'd seen the glory and told the story |Of battles glorious and deeds neforious | But now he's sighing, his heart is crying | To leave these green hills of Tyrol.
W: Because these green hills are not highland hills | Or the island hills, the're not my land's hills | And fair as these green foreign hills may be | They are not the hills of home.
W: And now this soldier, this Scottish soldier | Who wandered far away and soldiered far away | Sees leaves are falling and death is calling |And he will fade away, in that far land.
W: He called his piper, his trusty piper | And bade him sound a lay... a pibroch sad to play | Upon a hillside, a Scottish hillside |Not on these green hills of Tyrol.
W: And so this soldier, this Scottish soldier | Will wander far no more and soldier far no more | And on a hillside, a Scottish hillside | You'll see a piper play his soldier home.
W: He'd seen the glory, he'd told his story | Of battles glorious and deeds victorious | The bugles cease now, he is at peace now | Far from those green hills of Tyrol.


